icons/mobile/24/svg/cricket-24.svg

<svg width="24" height="24" viewBox="0 0 24 24" fill="none" xmlns="http://www.w3.org/2000/svg">
<path fill-rule="evenodd" clip-rule="evenodd" d="M6.53221 3C7.18714 3.00005 7.84218 3.22846 8.36912 3.69141C9.82704 4.97334 11.3306 6.37356 12.8545 7.89746C14.3782 9.42119 15.7778 10.9231 17.0596 12.3818C18.0346 13.4908 17.9678 15.1699 16.9238 16.2139L16.6885 16.4482L20.7441 20.5039C21.0861 20.8459 21.0861 21.4002 20.7441 21.7422C20.4021 22.0842 19.8478 22.0842 19.5058 21.7422L19.5049 21.7432L15.4492 17.6875L15.2158 17.9219C14.6678 18.4699 13.9437 18.749 13.2197 18.749C12.5648 18.749 11.9097 18.5205 11.3828 18.0576C9.92489 16.7757 8.42232 15.3755 6.89842 13.8516C5.37452 12.3277 3.9743 10.8261 2.69237 9.36719C1.71737 8.2582 1.78413 6.57916 2.82811 5.53516L4.53612 3.82715C5.08412 3.27915 5.80821 3 6.53221 3ZM6.53221 4.75C6.24521 4.75 5.9774 4.86243 5.7744 5.06543L4.06639 6.77344C3.67146 7.16939 3.64497 7.8009 4.00682 8.21289C5.32981 9.71788 6.71874 11.1992 8.13573 12.6162C9.55273 14.0332 11.034 15.4221 12.539 16.7451C12.7789 16.9559 13.0417 17 13.2197 17C13.5057 17 13.7745 16.8876 13.9775 16.6846L15.6855 14.9766C16.0805 14.5806 16.107 13.9491 15.7451 13.5371C14.4221 12.0321 13.0332 10.5508 11.6162 9.13379C10.1992 7.71679 8.71787 6.32788 7.21287 5.00488C6.973 4.79406 6.71018 4.75004 6.53221 4.75Z" fill="black"/>
<path fill-rule="evenodd" clip-rule="evenodd" d="M18.5 2C20.43 2 22 3.57 22 5.5C22 7.43 20.43 9 18.5 9C16.57 9 15 7.43 15 5.5C15 3.57 16.57 2 18.5 2ZM18.5 3.75C17.535 3.75 16.75 4.535 16.75 5.5C16.75 6.465 17.535 7.25 18.5 7.25C19.465 7.25 20.25 6.465 20.25 5.5C20.25 4.535 19.465 3.75 18.5 3.75Z" fill="black"/>
</svg>

<!-- This Source Code Form is subject to the terms of the Mozilla Public
   - License, v. 2.0. If a copy of the MPL was not distributed with this
   - file, You can obtain one at http://mozilla.org/MPL/2.0/. -->
<svg xmlns="http://www.w3.org/2000/svg" width="24" height="24" fill="none" viewBox="0 0 24 24">
    <path fill="#000" fill-rule="evenodd" d="M6.532 3c.655 0 1.31.228 1.837.691a96 96 0 0 1 8.69 8.69 2.805 2.805 0 0 1-.135 3.833l-.235.234 4.055 4.056a.876.876 0 1 1-1.238 1.238l-.001.001-4.056-4.055-.233.234a2.82 2.82 0 0 1-1.996.827c-.655 0-1.31-.229-1.837-.691a96 96 0 0 1-8.69-8.69 2.805 2.805 0 0 1 .135-3.833l1.708-1.708A2.82 2.82 0 0 1 6.532 3m0 1.75c-.287 0-.555.112-.758.315L4.066 6.773a1.056 1.056 0 0 0-.06 1.44 94 94 0 0 0 8.533 8.532c.24.21.503.255.68.255.287 0 .556-.112.758-.315l1.708-1.708a1.056 1.056 0 0 0 .06-1.44 94 94 0 0 0-8.532-8.532 1.02 1.02 0 0 0-.68-.255M18.5 2C20.43 2 22 3.57 22 5.5S20.43 9 18.5 9 15 7.43 15 5.5 16.57 2 18.5 2m0 1.75c-.965 0-1.75.785-1.75 1.75s.785 1.75 1.75 1.75 1.75-.785 1.75-1.75-.785-1.75-1.75-1.75" clip-rule="evenodd" />
</svg>
